assets/Deciduous tree/Flat/deciduous_tree_flat.svg

<svg xmlns="http://www.w3.org/2000/svg" width="32" height="32" fill="none"><path fill="#6D4534" d="M18 22.24h-4v7.78h4v-7.78Z"/><path fill="#44911B" d="M25.9 15.2c.38-.76.6-1.62.6-2.53 0-2.91-2.19-5.3-5-5.63V7c0-2.76-2.24-5-5-5s-5 2.24-5 5v.04a5.662 5.662 0 0 0-4.4 8.16c-1.26.94-2.1 2.43-2.1 4.12 0 2.84 2.32 5.16 5.16 5.16h12.68c2.84 0 5.16-2.32 5.16-5.16 0-1.69-.84-3.18-2.1-4.12Z"/></svg>

<svg width="32" height="32" viewBox="0 0 32 32" fill="none" xmlns="http://www.w3.org/2000/svg">
<path d="M18 22.24H14V30.02H18V22.24Z" fill="#6D4534"/>
<path d="M25.9 15.2C26.28 14.44 26.5 13.58 26.5 12.67C26.5 9.76 24.31 7.37 21.5 7.04C21.5 7.03 21.5 7.01 21.5 7C21.5 4.24 19.26 2 16.5 2C13.74 2 11.5 4.24 11.5 7C11.5 7.01 11.5 7.03 11.5 7.04C8.68 7.37 6.5 9.76 6.5 12.67C6.5 13.58 6.72 14.44 7.1 15.2C5.84 16.14 5 17.63 5 19.32C5 22.16 7.32 24.48 10.16 24.48H22.84C25.68 24.48 28 22.16 28 19.32C28 17.63 27.16 16.14 25.9 15.2Z" fill="#44911B"/>
</svg>
